li/gui-shipping-fast.svg

<svg role="img" focusable="false" aria-hidden="true" xmlns="http://www.w3.org/2000/svg" viewBox="0 0 14 14" height="1em" width="1em">
  <path d="m 12.7,8.8 -0.3,0 0,-2.02688 C 12.4,6.535 12.30437,6.30625 12.135625,6.1375 L 10.2625,4.26437 C 10.09375,4.09562 9.865,4 9.626875,4 L 8.8,4 8.8,3.1 C 8.8,2.60312 8.396875,2.2 7.9,2.2 l -4.8,0 C 2.603125,2.2 2.2,2.60312 2.2,3.1 L 2.2,4 1.15,4 C 1.0675,4 1,4.0675 1,4.15 l 0,0.3 C 1,4.5325 1.0675,4.6 1.15,4.6 l 5.1,0 c 0.0825,0 0.15,0.0675 0.15,0.15 l 0,0.3 C 6.4,5.1325 6.3325,5.2 6.25,5.2 l -4.5,0 C 1.6675,5.2 1.6,5.2675 1.6,5.35 l 0,0.3 c 0,0.0825 0.0675,0.15 0.15,0.15 l 3.9,0 c 0.0825,0 0.15,0.0675 0.15,0.15 l 0,0.3 C 5.8,6.3325 5.7325,6.4 5.65,6.4 l -4.5,0 C 1.0675,6.4 1,6.4675 1,6.55 l 0,0.3 C 1,6.9325 1.0675,7 1.15,7 l 3.9,0 C 5.1325,7 5.2,7.0675 5.2,7.15 l 0,0.3 C 5.2,7.5325 5.1325,7.6 5.05,7.6 l -2.85,0 0,2.4 c 0,0.99375 0.80625,1.8 1.8,1.8 0.99375,0 1.8,-0.80625 1.8,-1.8 l 2.4,0 c 0,0.99375 0.80625,1.8 1.8,1.8 0.99375,0 1.8,-0.80625 1.8,-1.8 l 0.9,0 C 12.865,10 13,9.865 13,9.7 L 13,9.1 C 13,8.935 12.865,8.8 12.7,8.8 Z M 4,10.9 C 3.503125,10.9 3.1,10.49687 3.1,10 3.1,9.50312 3.503125,9.1 4,9.1 c 0.496875,0 0.9,0.40312 0.9,0.9 0,0.49687 -0.403125,0.9 -0.9,0.9 z m 6,0 C 9.503125,10.9 9.1,10.49687 9.1,10 9.1,9.50312 9.503125,9.1 10,9.1 c 0.496875,0 0.9,0.40312 0.9,0.9 0,0.49687 -0.403125,0.9 -0.9,0.9 z M 11.5,7 8.8,7 8.8,4.9 9.626875,4.9 11.5,6.77312 11.5,7 Z"/>
</svg>

<svg aria-hidden="true" xmlns="http://www.w3.org/2000/svg" viewBox="0 0 14 14" height="1em" width="1em">
  <path d="M12.7 8.8h-.3V6.773a.9.9 0 0 0-.264-.635l-1.873-1.874A.9.9 0 0 0 9.627 4H8.8v-.9a.9.9 0 0 0-.9-.9H3.1a.9.9 0 0 0-.9.9V4H1.15a.15.15 0 0 0-.15.15v.3c0 .082.067.15.15.15h5.1a.15.15 0 0 1 .15.15v.3a.15.15 0 0 1-.15.15h-4.5a.15.15 0 0 0-.15.15v.3c0 .082.068.15.15.15h3.9a.15.15 0 0 1 .15.15v.3a.15.15 0 0 1-.15.15h-4.5a.15.15 0 0 0-.15.15v.3c0 .083.067.15.15.15h3.9a.15.15 0 0 1 .15.15v.3a.15.15 0 0 1-.15.15H2.2V10a1.8 1.8 0 0 0 3.6 0h2.4a1.8 1.8 0 0 0 3.6 0h.9a.3.3 0 0 0 .3-.3v-.6a.3.3 0 0 0-.3-.3ZM4 10.9a.9.9 0 1 1 0-1.8.9.9 0 0 1 0 1.8zm6 0a.9.9 0 1 1 0-1.8.9.9 0 0 1 0 1.8zM11.5 7H8.8V4.9h.827L11.5 6.773V7Z"/>
</svg>
